docs/.gitbook/assets/icon-eye-disabled-16@light.svg

<svg width="32" height="32" viewBox="0 0 16 16" fill="none" xmlns="http://www.w3.org/2000/svg">
<rect x="0" y="0" width="16" height="16" fill="#fff"/>
<path fill-rule="evenodd" clip-rule="evenodd" d="M1.21967 1.21967C1.51256 0.926777 1.98744 0.926777 2.28033 1.21967L4.26746 3.2068C5.27734 2.50513 6.53025 2 8 2C10.285 2 12.0352 3.21597 13.1839 4.4999C13.7609 5.14476 14.2034 5.8244 14.5048 6.41853C14.6555 6.71569 14.775 6.99938 14.8583 7.25408C14.9373 7.49553 15 7.75885 15 8C15 8.27903 14.9156 8.59541 14.8094 8.88748C14.6966 9.19751 14.5341 9.54729 14.327 9.91235C13.9818 10.5209 13.4987 11.1969 12.882 11.8214L14.7803 13.7197C15.0732 14.0126 15.0732 14.4874 14.7803 14.7803C14.4874 15.0732 14.0126 15.0732 13.7197 14.7803L1.21967 2.28033C0.926777 1.98744 0.926777 1.51256 1.21967 1.21967ZM11.8213 10.7607C12.3313 10.2429 12.7351 9.67859 13.0223 9.1723C13.1945 8.86866 13.3197 8.59487 13.3997 8.37472C13.4397 8.26473 13.4663 8.17403 13.4823 8.10413C13.4979 8.03638 13.4998 8.00387 13.5 8.00026C13.5 7.99993 13.5 7.99985 13.5 8C13.5 8.00037 13.5 8.00031 13.5 7.99983C13.4998 7.99654 13.4984 7.97306 13.4887 7.92534C13.4782 7.87331 13.4603 7.8049 13.4327 7.72053C13.3774 7.55141 13.2898 7.33899 13.1671 7.09709C12.9216 6.6131 12.5516 6.04274 12.0661 5.5001C11.0898 4.40903 9.71501 3.5 8 3.5C6.99386 3.5 6.10856 3.81119 5.34953 4.28887L6.4761 5.41544C6.92293 5.15158 7.44444 5 7.99994 5C9.6568 5 10.9999 6.34315 10.9999 8C10.9999 8.55546 10.8484 9.07699 10.5845 9.52384L11.8213 10.7607ZM9.44929 8.38863C9.48234 8.26487 9.49994 8.13466 9.49994 8C9.49994 7.17157 8.82837 6.5 7.99994 6.5C7.86529 6.5 7.73508 6.5176 7.61131 6.55065L9.44929 8.38863ZM2.25 6.75C1.62596 6.33397 1.6259 6.33407 1.62583 6.33417L1.62569 6.33439L1.62537 6.33487L1.62459 6.33604L1.62249 6.33922L1.61618 6.34884L1.59577 6.38055C1.57897 6.40694 1.55594 6.44381 1.52876 6.48913C1.47478 6.57908 1.40238 6.70569 1.32918 6.85209C1.20124 7.10797 1 7.55888 1 8C1 8.24115 1.06268 8.50447 1.14168 8.74592C1.22501 9.00062 1.34446 9.2843 1.49519 9.58147C1.79656 10.1756 2.23909 10.8552 2.81607 11.5001C3.96485 12.784 5.71501 14 8 14C8.3646 14 9.00031 13.9678 9.38585 13.8968C9.79321 13.8217 10.0626 13.4307 9.98759 13.0233C9.91257 12.6159 9.52151 12.3465 9.11415 12.4216C8.85973 12.4684 8.32856 12.5 8 12.5C6.28499 12.5 4.91015 11.591 3.93393 10.4999C3.44841 9.95726 3.07843 9.3869 2.83293 8.90291C2.71023 8.66101 2.62264 8.44859 2.56731 8.27947C2.5397 8.1951 2.52183 8.12669 2.51128 8.07466C2.5016 8.02694 2.50022 8.00346 2.50003 8.00017C2.5 7.99969 2.5 7.99963 2.5 8C2.5 7.94112 2.54876 7.76703 2.67082 7.52291C2.72262 7.41931 2.77522 7.32717 2.81499 7.26087C2.83468 7.22806 2.85072 7.20243 2.86126 7.18586L2.87259 7.16825L2.87416 7.16585L2.87425 7.16571C2.87426 7.16569 2.87427 7.16567 2.87428 7.16566C3.10374 6.82105 3.01055 6.35564 2.66603 6.12596C2.32138 5.8962 1.85573 5.98933 1.62596 6.33397L2.25 6.75Z" fill="#000"/>
</svg>

<svg xmlns="http://www.w3.org/2000/svg" width="32" height="32" fill="none" viewBox="0 0 16 16"><path fill="#fff" d="M0 0h16v16H0z"/><path fill="#000" fill-rule="evenodd" d="M1.22 1.22a.75.75 0 0 1 1.06 0l1.987 1.987C5.277 2.505 6.53 2 8 2c2.285 0 4.035 1.216 5.184 2.5a9 9 0 0 1 1.32 1.919c.152.297.271.58.354.835.08.242.142.505.142.746 0 .279-.084.595-.19.887-.113.31-.276.66-.483 1.025a9.3 9.3 0 0 1-1.445 1.91l1.898 1.898a.75.75 0 1 1-1.06 1.06L1.22 2.28a.75.75 0 0 1 0-1.06m10.601 9.54a7.8 7.8 0 0 0 1.201-1.588c.172-.303.298-.577.378-.797q.059-.166.082-.27A1 1 0 0 0 13.5 8q.001-.004-.011-.075a2 2 0 0 0-.056-.204 4.5 4.5 0 0 0-.266-.624 7.6 7.6 0 0 0-1.1-1.597c-.977-1.09-2.353-2-4.067-2-1.006 0-1.891.311-2.65.789l1.126 1.126a3 3 0 0 1 4.108 4.108zM9.45 8.39A1.504 1.504 0 0 0 8 6.5q-.202.001-.388.05zm-7.2-1.64-.624-.416-.001.002-.003.003-.006.01-.02.032-.067.108c-.054.09-.127.217-.2.363C1.201 7.108 1 7.56 1 8c0 .241.063.504.142.746.083.255.202.538.353.835a9 9 0 0 0 1.321 1.92C3.965 12.783 5.715 14 8 14c.365 0 1-.032 1.386-.103a.75.75 0 0 0-.272-1.475A8 8 0 0 1 8 12.5c-1.715 0-3.09-.909-4.066-2a7.6 7.6 0 0 1-1.101-1.597 4.5 4.5 0 0 1-.266-.624 2 2 0 0 1-.056-.204L2.5 8c0-.059.049-.233.17-.477a4 4 0 0 1 .191-.337l.012-.018.001-.002a.75.75 0 0 0-1.248-.832z" clip-rule="evenodd"/></svg>
